icon/telegram-icon.svg

<svg width="21" height="18" viewBox="0 0 21 18" fill="none" xmlns="http://www.w3.org/2000/svg">
<path d="M18.665 0.717064L0.935003 7.55406C-0.274997 8.04006 -0.267997 8.71506 0.713003 9.01606L5.265 10.4361L15.797 3.79106C16.295 3.48806 16.75 3.65106 16.376 3.98306L7.843 11.6841H7.841L7.843 11.6851L7.529 16.3771C7.989 16.3771 8.192 16.1661 8.45 15.9171L10.661 13.7671L15.26 17.1641C16.108 17.6311 16.717 17.3911 16.928 16.3791L19.947 2.15106C20.256 0.912064 19.474 0.351064 18.665 0.717064Z" fill="#2F80ED"/>
</svg>

<svg width="21" height="18" fill="none" xmlns="http://www.w3.org/2000/svg"><path d="M18.665.717.935 7.554C-.275 8.04-.268 8.715.713 9.016l4.552 1.42 10.532-6.645c.498-.303.953-.14.579.192l-8.533 7.701h-.002l.002.001-.314 4.692c.46 0 .663-.21.921-.46l2.211-2.15 4.599 3.397c.848.467 1.457.227 1.668-.785l3.019-14.228c.309-1.239-.473-1.8-1.282-1.434Z" fill="#2F80ED"/></svg>
